X: 1
T: Colored Aristocracy
R: reel
O:
B:
D:
Z: John Chambers <jc:trillian.mit.edu>
N:
M: 2/4
L: 1/8
K: G
D \
|: "G"G2 ED | G3 A | "Em"B2 AG | E4 | "C"ef gf/e/ | "G"d>e d/B/A/G/ \
|1 "A7"A2 B^c | "D7"[dd4]c BA :|2 "G"B/A/B/d/- "D7"d/B/A | "G"G4 :|
d \
|: "G"g2 ed | "Em"e3 d | "C"e>g ed | "G"B3 d | "C"ef gf/e/ | "G"d>e d/B/A/G/ \
|1 "A7"AB c^c | "D7"d^d ef :|2 "G"B/A/B/d/- "D7"d/B/A | "G"G4 :|
